src/icons/svg/export.svg

<?xml version="1.0" encoding="UTF-8"?>
<svg width="14px" height="14px" viewBox="0 0 14 14" version="1.1" xmlns="http://www.w3.org/2000/svg" xmlns:xlink="http://www.w3.org/1999/xlink">
    <!-- Generator: Sketch 63 (92445) - https://sketch.com -->
    <title>编组 5</title>
    <desc>Created with Sketch.</desc>
    <g id="图标页面" stroke="none" stroke-width="1" fill="none" fill-rule="evenodd">
        <g id="画板" transform="translate(-371.000000, -42.000000)" fill="#333333" fill-rule="nonzero">
            <g id="导出员工" transform="translate(362.000000, 33.000000)">
                <g id="编组-5" transform="translate(9.000000, 9.000000)">
                    <path d="M11.8035,14.0000009 L1.967,14.0000009 C0.8805,14.0000009 -1.38555833e-13,13.1195009 -1.38555833e-13,12.0330009 L-1.38555833e-13,2.19650086 C-1.38555833e-13,1.11050086 0.9135,8.56386312e-07 2,8.56386312e-07 L7.5,8.56386312e-07 L7.5,1.00000086 L2,1.00000086 C1.4565,1.00000086 1,1.45650086 1,2.00000086 L0.9835,12.0330009 C0.9835,12.5760009 1.424,13.0165009 1.967,13.0165009 L12,13.0000009 C12.543,13.0000009 13,12.5430009 13,12.0000009 L13,6.50000086 L14,6.50000086 L14,12.0000009 C14,13.0865009 12.8895,14.0000009 11.8035,14.0000009 Z M13.5261218,4.4947574 C13.2574332,4.49525682 13.0517704,4.26552486 13.0522443,3.99534011 L13.038028,1.60912425 L5.82656076,8.85766693 C5.63748366,9.0474455 5.33088494,9.0474455 5.14180783,8.85766693 C4.95273072,8.66738894 4.95273072,8.35924846 5.14180783,8.16946989 L12.2911971,0.98285496 L10.2089795,0.998836313 C9.94029101,0.999335731 9.73462819,0.769603773 9.73510207,0.499419014 C9.73557594,0.229234256 9.94029101,0.000501133023 10.2089795,8.56386312e-07 L13.5156965,8.56386312e-07 C13.784385,-0.000497701574 14.0004731,0.216748823 14,0.486933582 L14,3.99534011 C13.9995253,4.26552486 13.7948103,4.49425799 13.5261218,4.4947574 Z" id="形状"></path>
                </g>
            </g>
        </g>
    </g>
</svg>

<svg width="14" height="14"><path d="M11.803 14H1.967A1.967 1.967 0 010 12.033V2.197C0 1.11.913 0 2 0h5.5v1H2c-.544 0-1 .457-1 1L.984 12.033c0 .543.44.984.983.984L12 13c.543 0 1-.457 1-1V6.5h1V12c0 1.087-1.11 2-2.197 2zm1.723-9.505c-.269 0-.474-.23-.474-.5l-.014-2.386-7.211 7.249a.483.483 0 01-.685 0 .488.488 0 010-.689l7.15-7.186-2.083.016c-.269 0-.474-.23-.474-.5S9.94.001 10.21 0h3.307c.268 0 .484.217.484.487v3.508c0 .27-.205.5-.474.5z"/></svg>
